X:1
T:Title
L:1/4
M:4/4
I:linebreak $
K:G
V:1 treble nm="Voice" snm="Voice"
V:1
 d/B/ |"D" A F D F | A d/c/ d c/B/ | A F D F | A E E F/G/ |$"D" _A F D F | A d/c/ d d/e/ | %7
 f d e c |"D" d d/d/ d ::$ e | f g a f | e f g3/2 e/ | f g a f | e/d/^c/B/ A e |$ f g a f | %15
 e f g3/2 e | f d e ^c | d d/d/ d :| %18
